!!!COM: Martin, Frank
!!!OTL: Sonata da chiesa (Church Sonata), for Viola d'amore and Organ
!!!OMV: I: Andante
!!!example: 553
!!!work: Mai-19
**kern	**kern	**kern	**dynam
*part3	*part2	*part1	*part1
*staff3	*staff2	*staff1	*
*I"Pedals	*I"Organ	*I"Flute	*
*I'Ped.	*I'Org.	*I'Fl.	*
*clefF4	*clefG2	*clefG2	*
*k[]	*k[]	*k[]	*
*C:	*C:	*C:	*
*M4/4	*M4/4	*M4/4	*
*MM121	*MM121	*MM121	*
4r	(4a 4cc	4r	.
=1	=1	=1	=1
1r	4a) 4b	[1d	.
.	(4a 4b	.	.
.	4g#X) 4b	.	.
.	(4g# 4b	.	.
=2	=2	=2	=2
2.B-X	4gn) 4ff	2d]	.
.	(4gn 4ff	.	.
.	4ddn) 4ee-X	(4.g	.
4r	[4dd [4ee-	.	.
.	.	8a)	.
=3	=3	=3	=3
2.G	4dd] 4ee-]	(8b-X	.
.	.	4a)	.
.	(4dd 4ee-X	.	.
.	.	([4b-	.
.	4cc) 4ee-	.	.
.	.	8b-]	.
4r	(4cc 4ee-	4a)	.
=4	=4	=4	=4
2.F	4ddn) 4aa	(8bn	.
.	.	[4.dd	.
.	([4bn 4aa	.	.
.	4b]) 4gg#X	4.dd])	.
4r	(4b 4gg#	.	.
.	.	8gg~	.
=5	=5	=5	=5
[1D	4ff) 4ggn	([1bb-X	<
.	(4ff 4gg	.	.
.	4ee) 4gg	.	.
.	(4ee 4gg	.	.
=6	=6	=6	=6
!!linebreak:original
2.D]	4ee-X) 4ccc#X	4.bb-]	.
.	(4ee- 4ccc#	.	.
.	.	8aa)	[
.	4aa) 4cccn	(8ff#X	.
.	.	4gg#X	.
4r	(4aa 4ccc	.	.
.	.	[8ff#	.
=7	=7	=7	=7
2.GG	4aa) 4bb	8ff#])	.
.	.	(4ee-X	.
.	(4aa 4bb	.	.
.	.	4ffn)	.
.	4aa-X) 4bb	.	.
.	.	(4gg-X	.
4r	(4aa- 4bb	.	.
.	.	[8ff	.
=8	=8	=8	=8
2.GG	4cc) 4bb	8ffL])	.
.	.	(8eenJ	.
.	(4ff#X 4aa	8ff	.
.	.	4dd)	.
.	4bn) 4aa	.	.
.	.	[8cc#X~L	.
4r	(4ffn 4gg#X	8.cc#]	.
.	.	[16cc#~Jk	.
=9	=9	=9	=9
2.GG	4b-X) 4gg#X	8cc#L]	.
.	.	(8cc#X~	.
.	(4b- 4ff#X	8dd~	.
.	.	8ee~J)	.
.	4a) 4ff#	4ffn~	.
4r	[4a [4ff#	8.ccn~L	.
.	.	16cc'Jk	.
=	=	=	=
*-	*-	*-	*-
!!!system-decoration: s1[(s2)]s3
!!!CDT: 1890/09/15-1974/11/21
!!!CBL: Geneva, Switzerland
!!!CDL: Naarden, Netherlands
!!!CNT: Swiss
!!!AGN: Instrumental; Chamber
!!!MCN:
!!!MDT: 1939/12/08
!!!MGN:
!!!MLC: Basel, Switzerland
!!!MPD: 1939
!!!MPN: Balmer, Hans; Flügel, Gertrud
!!!ODT: 1938
!!!PDT: 1952
!!!excerpt-start-measure: 1
!!!excerpt-end-measure: 9
!!!excerpt-start-time: 0:00
!!!excerpt-end-time: 0:34
!!!EEV: 2020/01/22
!!!ONB: Converted from MusicXML on 2020/01/22
